X: 14
T:Paddy's Return
M:6/8
L:1/8
Q:120
S:THSP
R:jig
H:
Z:
K:D
"D"AFD DFA|"G"BdB BAF|"D"ABA ~F3|"A"GFG E2B|
"D"AFD DFA|"G"BdB BAF|"D"ABA F2E
|1 "A"FDD "D"D2B:|2 "A"FDD "D" D2e||:
"D"fdd ede|fdd d2e|~f3 def|"G"gfg efg|
"D"fed B2d|"G"AdF ~G3|"A"ABA F2E|1 "D"FDD D2e:|2 "D"FDD D2B|]
